X:6848
T:The Green Banks of the Maigue
O:england
B:Joyce, P. W.; "Old Irish Folk Music and Songs"
R:song air
M:C
K:C
L:1/4
G|cccG|AGGE|DCCD|E2 z G|
ccec/A/|GEGE|D/C/D/E/ CC|C3||G/F/|
ECEG|_BAAG|F E/D/CD|E3 G|
cccG/A/|GEGE|D/C/D/E/ CC|C2 z||


